src/components/Icon/assets/channel-up.svg

<svg width="24" height="24" viewBox="0 0 24 24" fill="none" xmlns="http://www.w3.org/2000/svg">
<path fill-rule="evenodd" clip-rule="evenodd" d="M11.9977 4.00009C9.87671 4.00009 7.87171 4.81809 6.34871 6.33709C4.50771 8.17509 3.68971 10.7231 4.10571 13.3271C4.64771 16.7131 7.40871 19.4221 10.8217 19.9151C12.5337 20.1621 14.2377 19.8671 15.7477 19.0601C16.3897 18.7181 17.1047 18.6481 17.7627 18.8671L19.4187 19.4181L18.8667 17.7631C18.6487 17.1071 18.7167 16.3921 19.0597 15.7481C19.9437 14.0931 20.2107 12.2281 19.8337 10.3541C19.1867 7.14209 16.5797 4.63209 13.3447 4.10909C12.8927 4.03609 12.4427 4.00009 11.9977 4.00009ZM11.9997 22.0001C11.5137 22.0001 11.0247 21.9651 10.5357 21.8941C6.2657 21.2771 2.8097 17.8841 2.1317 13.6431C1.6127 10.3971 2.6347 7.2181 4.9357 4.9221C7.2377 2.6251 10.4187 1.6101 13.6637 2.1351C17.7167 2.7911 20.9847 5.9351 21.7947 9.9591C22.2647 12.2941 21.9287 14.6211 20.8247 16.6891C20.7767 16.7781 20.7057 16.9551 20.7647 17.1311L21.6327 19.7351C21.8127 20.2771 21.6747 20.8651 21.2697 21.2701C20.8647 21.6741 20.2757 21.8121 19.7347 21.6321L17.1297 20.7641C16.9557 20.7061 16.7787 20.7771 16.6907 20.8241C15.2337 21.6021 13.6347 22.0001 11.9997 22.0001ZM8.7863 10.8072C7.9413 10.8072 7.5883 10.1962 7.5883 8.7022C7.5883 7.2072 7.9413 6.5972 8.7863 6.5972C9.6313 6.5972 9.9853 7.2072 9.9853 8.7022C9.9853 10.1962 9.6313 10.8072 8.7863 10.8072ZM14.0145 8.7022C14.0145 10.1962 14.3685 10.8072 15.2135 10.8072C16.0585 10.8072 16.4115 10.1962 16.4115 8.7022C16.4115 7.2072 16.0585 6.5972 15.2135 6.5972C14.3685 6.5972 14.0145 7.2072 14.0145 8.7022Z" fill="#65676A"/>
</svg>

<svg xmlns="http://www.w3.org/2000/svg" width="24" height="24" viewBox="0 0 24 24">
    <path fill="#65676A" fill-rule="evenodd" d="M13.664 2.135c4.053.656 7.32 3.8 8.13 7.824.47 2.335.135 4.662-.97 6.73-.047.09-.118.266-.06.442l.869 2.604c.18.542.042 1.13-.363 1.535-.405.404-.994.542-1.535.362l-2.605-.868c-.174-.058-.351.013-.44.06C15.235 21.602 13.636 22 12 22c-.486 0-.975-.035-1.464-.106-4.27-.617-7.726-4.01-8.404-8.25-.52-3.247.503-6.426 2.804-8.722 2.302-2.297 5.483-3.312 8.728-2.787zM11.998 4c-2.121 0-4.126.818-5.65 2.337-1.84 1.838-2.658 4.386-2.242 6.99.542 3.386 3.303 6.095 6.716 6.588 1.712.247 3.416-.048 4.926-.855.642-.342 1.357-.412 2.015-.193l1.656.551-.552-1.655c-.218-.656-.15-1.37.193-2.015.884-1.655 1.15-3.52.774-5.394-.647-3.212-3.254-5.722-6.49-6.245-.451-.073-.901-.109-1.346-.109zM8.786 6.597c.845 0 1.2.61 1.2 2.105 0 1.494-.355 2.105-1.2 2.105s-1.198-.61-1.198-2.105.353-2.105 1.198-2.105zm6.428 0c.844 0 1.197.61 1.197 2.105 0 1.494-.353 2.105-1.198 2.105s-1.198-.61-1.198-2.105.353-2.105 1.198-2.105z"/>
</svg>
